Numix-GalliumOS/scalable/actions/window-close-symbolic.svg

<svg xmlns="http://www.w3.org/2000/svg" viewBox="0 0 16 16">
<g transform="translate(-41 -760)">
<path style="fill:#bebebe;line-height:normal;color:#bebebe" d="m 45,764 1,0 c 0.01037,-1.2e-4 0.02079,-4.6e-4 0.03125,0 0.254951,0.0112 0.50987,0.12858 0.6875,0.3125 L 49,766.59375 51.3125,764.3125 C 51.578125,764.082 51.759172,764.007 52,764 l 1,0 0,1 c 0,0.28647 -0.03434,0.55065 -0.25,0.75 l -2.28125,2.28125 2.25,2.25 C 52.906938,770.46942 52.999992,770.7347 53,771 l 0,1 -1,0 c -0.265301,-10e-6 -0.530586,-0.0931 -0.71875,-0.28125 L 49,769.4375 46.71875,771.71875 C 46.530586,771.90694 46.26529,772 46,772 l -1,0 0,-1 c -3e-6,-0.26529 0.09306,-0.53058 0.28125,-0.71875 l 2.28125,-2.25 L 45.28125,765.75 C 45.070508,765.55537 44.97809,765.28075 45,765 l 0,-1 z"/>
</g>
</svg>

<svg xmlns="http://www.w3.org/2000/svg" viewBox="0 0 16 16">
 <g transform="translate(-41 -760)">
  <path d="m 45 764 1 0 c 0.01 0 0.021 0 0.031 0 0.255 0.011 0.51 0.129 0.688 0.313 l 2.281 2.281 2.313 -2.281 c 0.266 -0.231 0.447 -0.306 0.688 -0.313 l 1 0 0 1 c 0 0.286 -0.034 0.551 -0.25 0.75 l -2.281 2.281 2.25 2.25 c 0.188 0.188 0.281 0.453 0.281 0.719 l 0 1 -1 0 c -0.265 0 -0.531 -0.093 -0.719 -0.281 l -2.281 -2.281 -2.281 2.281 c -0.188 0.188 -0.453 0.281 -0.719 0.281 l -1 0 0 -1 c 0 -0.265 0.093 -0.531 0.281 -0.719 l 2.281 -2.25 l -2.281 -2.281 c -0.211 -0.195 -0.303 -0.469 -0.281 -0.75 l 0 -1 z" style="fill:#bebebe;color:#bebebe"/>
 </g>
</svg>
